X:131
T:Does It Have To End This Way
C:Longview - High Lonesome
N:mandolin: Don Rigsby -Transcribed by Philippe Colleu
R:bluegrass
L:1/8
Q:1/4=210
M:4/4
K:C
"(122 bpm)"z_B F2 Bd ^d2 | "Bb"f[_b2f2]f [b2f2] [bf]b | [_b2f2] [a/e/][b/f/]b "Eb"fb f/^d/d | 
{^c}"Bb"d_B BB BB [cB]d | _B2 BB BB BB | ^cd _BA ^d2 BA | ^cd _BA "Eb"^d2 [dB]A | 
"F7"^GA fG AD GA | f2 [f2A2F2] A2 [fAF]A | "Eb"F/G/^d dd dd de | f_b bb bb bd' | 
"Bb"_bf/^d/ d^c =d_B cd | _B2 [d2B2F2] BF FD | FG _Bc df gf | "F7"^g=g f^c df c=c | 
"Bb"_BF GB F^D =DF | _B2 [BE][BF] [BF][BF] [BE][BF] | [_BF][BF] [BF][BF] [BF][BF] [B2F2] | 
[_B8F8] | 


